!!!OTL: Ritter und Magd 'Mein Schatz, warum willst du es doch nicht
!!!ARE: Europa, Mitteleuropa, Deutschland (BRD), Westfalen, Hillnhuetten
!!!YOR: 3, S. 54
!!    1847 aufgezeichnet
!!!SCT: Q0055P
!!!YEM: Copyright 1995, estate of Helmut Schaffrath.
**kern
*ICvox
*Ivox
*M6/8
*k[b-]
*F:
{8c
4f
8g
=1
4a
8b-
8cc
16dd
16cc
16b-
16g
=2
4f}
{8f
8ff
8ee
8dd
=3
8gg
8ee
8cc
4.dd
=4
4cc}
{8cc
4dd
8dd
=5
4b-
8b-
8ff
8ff
16ff
16dd
=6
4cc}
{8a
8dd
8b-
8g
=7
8cc
8a
8f
4.g
=8
4f}
==
!!!AGN: Ballade, Betrug, Schwangerschaft, Tod, Selbstmord, Herr und Magd
!!!ONB: ESAC (Essen Associative Code) Database: BALLADE
!!!AMT: compound duple
!!!AIN: vox
!!!EED: Helmut Schaffrath
!!!EEV: 1.0
*-
